polaris-icons/icons/newicons/EnableSelectionMinor.svg

<svg width="20" height="20" viewBox="0 0 20 20" fill="none" xmlns="http://www.w3.org/2000/svg">
<path d="M8.03032 9.46967C7.73743 9.17678 7.26255 9.17678 6.96966 9.46967C6.67677 9.76256 6.67677 10.2374 6.96966 10.5303L9.01776 12.5784C9.31065 12.8713 9.78553 12.8713 10.0784 12.5784L13.5407 9.11612C13.8336 8.82322 13.8336 8.34835 13.5407 8.05546C13.2478 7.76256 12.773 7.76256 12.4801 8.05546L9.54809 10.9874L8.03032 9.46967Z" fill="black"/>
<path fill-rule="evenodd" clip-rule="evenodd" d="M3 6C3 4.34315 4.34315 3 6 3H14C15.6569 3 17 4.34315 17 6V14C17 15.6569 15.6569 17 14 17H6C4.34315 17 3 15.6569 3 14V6ZM6 4.5H14C14.8284 4.5 15.5 5.17157 15.5 6V14C15.5 14.8284 14.8284 15.5 14 15.5H6C5.17157 15.5 4.5 14.8284 4.5 14V6C4.5 5.17157 5.17157 4.5 6 4.5Z" fill="black"/>
</svg>

<svg viewBox="0 0 20 20" fill="none" xmlns="http://www.w3.org/2000/svg"><path d="M8.03 9.47a.75.75 0 0 0-1.06 1.06l2.048 2.048a.75.75 0 0 0 1.06 0l3.463-3.462a.75.75 0 0 0-1.06-1.06l-2.933 2.931-1.518-1.517Z" fill="#000"/><path fill-rule="evenodd" clip-rule="evenodd" d="M3 6a3 3 0 0 1 3-3h8a3 3 0 0 1 3 3v8a3 3 0 0 1-3 3h-8a3 3 0 0 1-3-3v-8Zm3-1.5h8a1.5 1.5 0 0 1 1.5 1.5v8a1.5 1.5 0 0 1-1.5 1.5h-8a1.5 1.5 0 0 1-1.5-1.5v-8a1.5 1.5 0 0 1 1.5-1.5Z" fill="#000"/></svg>
